X:871
T:Se\'an Maguire's
R:reel
H:with variation
D:Matt Molloy: Stony Steps
Z:id:hn-reel-871
M:C|
L:1/8
K:G
~G3A ~B3A | GBdB cBAF | DG~G2 ~A3B | cBAG FdBA |
GFGA B2BA | GBdB BABc | d2cA BGAG | FGAc BGGD |
~G3A B2BA | GBdB cBAF | DGGD ~G2AB | cBAG FdBA |
~G3A B2BA | GBdB BABc | d2cA BGAG | FGAc Bg~g2 ||
dg~g2 b2af | defg afgf | dg~g2 bgag | fdcA ~G3z |
dg~g2 b2af | defg afgf | dg~g2 dg~g2 | ~a3g fdcA |
dg~g2 bgag | d2fg afgf | dg~g2 ~a3g | fdcA ~G3z |
dg~g2 b2af | dafg afgf | dg~g2 dgbg | dgag fdcA ||

